X:1
T:Clarinet concerto
T:Theme from Adagio, Clarinet Concerto.
T:Mozart arr. solo guitar G.Dempsey
C:Mozart
%%score ( 1 2 3 )
L:1/8
Q:1/4=50
M:3/4
K:D
V:1 treble-8 nm="Classical Guitar" snm="Guit."
V:2 treble-8 
V:3 treble-8 
V:1
"^Low e string tunes to d." A2 d3 f | fe d2 z2 | A3 d fa | ag f2 z2 | e3 a fa | e3 a Bf | %6
"^CII........................" !1!A4{/c} B>A | A[GB] [FA][EG] [DF][CE] :: f3 e dc | %9
 !4![GB] [GB]2 [FA] [EG][^DF] | g3 f e=d | c [Ac]2 [E^GB] [FA][^EG] | a3 g fe | dg g3 f | %14
 f/e/g/e/ d2{/f} e>d | d[GB] [FA][EG] [DF][CE] | f3 e dc | z !4!!3![gb]2 [fa] [eg][^df] | %18
 g3 f e=d | c [ac']2 [^Geb] [^da][c^g] | a3 g fe | dg g3 f | e/b/[Gg]/e/ d2{/f} [ce]>d | d6 |] %24
V:2
 [D,F]A, FA, D,[A,F] | [A,EGc]A [D,F]A DA | [D,F]A, [D,F]A, D[FA] | [A,Gc]A [D,d]A DA | %4
 [A,Ec]A [A,E]A [A,d]A | [A,Ec]A [A,E]A [DF]2 | !1!!3![E,C]E CE [E,D^G]2 | A,6 :: DA, DA, [DF]A, | %9
 !3![G,B]2 A,2 B,2 | !0!G!2!E GE GE | [A,A]2 [B,D]2 ^DC | [F,A]c [G,GB]e [A,Ac]G | %13
 [B,F]d [Ce]A, [Dd]A | B,E [DA][FA] [A,c][CG] | [DF]2 z4 | DA, DA, [DF]A, | !1!!0![G,B]2 !2!A2 B2 | %18
 GE GE GE | A,2 !0![Bd]2 F^E | [F,A]c [G,GB]e [A,Ac]G | [B,F]d [Ce]A, [Dd]A | %22
 [G,B]2 [A,F]A [A,G]A | [D,A]6 |] %24
V:3
 x6 | x6 | x6 | x6 | x6 | x6 | x6 | x6 :: D,6 | x6 | !1![E,B,]6 | x6 | x6 | x6 | x6 | x6 | D,6 | %17
 x6 | [E,B,]6 | x6 | x6 | x6 | x6 | x6 |] %24

